Adwaita++-Dark/actions/16/format-text-strikethrough.svg

<svg height="16" width="16" xmlns="http://www.w3.org/2000/svg">
  <g fill="#e6ddff">
    <path d="m4 3v2h6c.43 0 1 .61 1 1h2c0-1.63-1.32-3-3-3zm-1 7c0 .72.2693 1.449.7793 2.029s1.3107.971 2.2207.971h7v-3h-2v1h-5c-.4 0-.5707-.109-.7207-.279s-.2793-.441-.2793-.721z"/>
    <path d="m1 7v2h14v-2z"/>
  </g>
</svg>

<svg xmlns="http://www.w3.org/2000/svg" width="16" height="16" version="1.1">
 <path style="fill:#E6DDFF" d="M 4 3 L 4 5 L 10 5 C 10.43 5 11 5.61 11 6 L 13 6 C 13 4.37 11.68 3 10 3 L 4 3 z M 3 10 C 3 10.72 3.2693 11.449 3.7793 12.029 C 4.2893 12.609 5.09 13 6 13 L 13 13 L 13 10 L 11 10 L 11 11 L 6 11 C 5.6 11 5.4293 10.891 5.2793 10.721 C 5.1293 10.551 5 10.28 5 10 L 3 10 z"/>
 <path style="fill:#E6DDFF" d="M 1,7 V 9 H 15 V 7 Z"/>
</svg>
